brandFactory_export/1.Light/Configurar decodificador tv_1Light.svg

<?xml version="1.0" encoding="UTF-8"?>
<svg width="24px" height="24px" viewBox="0 0 24 24" version="1.1" xmlns="http://www.w3.org/2000/svg" xmlns:xlink="http://www.w3.org/1999/xlink">
    <title>1.Light/Configurar decodificador tv_1Light</title>
    <g id="Symbols" stroke="none" stroke-width="1" fill="none" fill-rule="evenodd">
        <g id="1.Light/Configurar-decodificador-tv_1Light" fill="#5CB615" fill-rule="nonzero">
            <path d="M15.4084034,4.01344538 C15.7781513,4.01344538 16.0806723,4.31596639 16.0773109,4.68571429 L16.0773109,4.68571429 L16.0773109,5.57647059 C16.312605,5.62689076 16.5411765,5.70084034 16.7630252,5.79159664 L16.7630252,5.79159664 L17.3445378,5.21008403 C17.6067227,4.94789916 18.0336134,4.94789916 18.2957983,5.21008403 L18.2957983,5.21008403 L19.1798319,6.0907563 C19.4420168,6.35294118 19.4420168,6.77983193 19.1798319,7.04201681 L19.1798319,7.04201681 L18.5983193,7.62352941 C18.6890756,7.84537815 18.7596639,8.07394958 18.8134454,8.3092437 L18.8134454,8.3092437 L19.7042017,8.3092437 C20.0739496,8.3092437 20.3764706,8.61176471 20.3764706,8.98151261 L20.3764706,8.98151261 L20.3764706,10.2252101 C20.3764706,10.594958 20.0739496,10.897479 19.7042017,10.897479 L19.7042017,10.897479 L18.8134454,10.897479 C18.7630252,11.1327731 18.6890756,11.3613445 18.5983193,11.5831933 L18.5983193,11.5831933 L19.1798319,12.1647059 C19.3002333,12.2851073 19.3653436,12.4402429 19.3751628,12.5982111 L21.3747899,12.5983193 C22.6117647,12.5983193 23.6168067,13.6033613 23.6168067,14.8403361 L23.6168067,17.2638655 C23.6168067,18.5008403 22.6117647,19.5058824 21.3747899,19.5058824 L2.24537815,19.5058824 C1.00840336,19.5058824 0.00336134449,18.5008403 0.00336134449,17.2638655 L0.00336134449,14.8403361 C0.00336134449,13.6033613 1.00840336,12.5983193 2.24537815,12.5983193 L10.2011277,12.5978559 C10.2103033,12.4388508 10.2754736,12.2825096 10.3966387,12.1613445 L10.3966387,12.1613445 L10.9781513,11.5798319 C10.887395,11.3579832 10.8168067,11.1294118 10.7630252,10.8941176 L10.7630252,10.8941176 L9.87226891,10.8941176 C9.50252101,10.8941176 9.2,10.5915966 9.2,10.2218487 L9.2,10.2218487 L9.2,8.97815126 C9.2,8.60840336 9.50252101,8.30588235 9.87226891,8.30588235 L9.87226891,8.30588235 L10.7630252,8.30588235 C10.8134454,8.07058824 10.887395,7.84201681 10.9781513,7.62016807 L10.9781513,7.62016807 L10.3966387,7.03865546 C10.1344538,6.77647059 10.1344538,6.34957983 10.3966387,6.08739496 L10.3966387,6.08739496 L11.2739496,5.21008403 C11.5361345,4.94789916 11.9630252,4.94789916 12.2252101,5.21008403 L12.2252101,5.21008403 L12.8067227,5.79159664 C13.0285714,5.70084034 13.2571429,5.6302521 13.492437,5.57647059 L13.492437,5.57647059 L13.492437,4.68571429 C13.492437,4.31596639 13.794958,4.01344538 14.1647059,4.01344538 L14.1647059,4.01344538 Z M10.5543613,13.2704454 L2.24537815,13.2705882 C1.37815126,13.2705882 0.675630252,13.9731092 0.675630252,14.8403361 L0.675630252,17.2638655 C0.675630252,18.1310924 1.37815126,18.8336134 2.24537815,18.8336134 L21.3747899,18.8336134 C22.2420168,18.8336134 22.9445378,18.1310924 22.9445378,17.2638655 L22.9445378,14.8403361 C22.9445378,13.9731092 22.2420168,13.2705882 21.3747899,13.2705882 L19.0233613,13.2704454 L18.2991597,13.9932773 C18.0631933,14.2292437 17.6938151,14.2528403 17.4311664,14.0640672 L17.3478992,13.9932773 L16.7663866,13.4117647 C16.5445378,13.502521 16.3159664,13.5731092 16.0806723,13.6268908 L16.0806723,13.6268908 L16.0806723,14.5176471 C16.0806723,14.887395 15.7781513,15.189916 15.4084034,15.189916 L15.4084034,15.189916 L14.1647059,15.189916 C13.794958,15.189916 13.492437,14.887395 13.492437,14.5176471 L13.492437,14.5176471 L13.492437,13.6268908 C13.2571429,13.5764706 13.0285714,13.502521 12.8067227,13.4117647 L12.8067227,13.4117647 L12.2252101,13.989916 C11.9630252,14.2521008 11.5361345,14.2521008 11.2739496,13.989916 L11.2739496,13.989916 L10.5543613,13.2704454 Z M19.9394958,16.4268908 C20.3327731,16.4268908 20.6521008,16.7462185 20.6521008,17.1394958 C20.6521008,17.5327731 20.3327731,17.8521008 19.9394958,17.8521008 L16.7529412,17.8521008 C16.3596639,17.8521008 16.0403361,17.5327731 16.0403361,17.1394958 C16.0403361,16.7462185 16.3596639,16.4268908 16.7529412,16.4268908 L19.9394958,16.4268908 Z M3.20336134,16.5915966 C3.50595769,16.5915966 3.7512605,16.8368994 3.7512605,17.1394958 C3.7512605,17.4420921 3.50595769,17.687395 3.20336134,17.687395 C2.90076499,17.687395 2.65546218,17.4420921 2.65546218,17.1394958 C2.65546218,16.8368994 2.90076499,16.5915966 3.20336134,16.5915966 Z M5.23697479,16.5915966 C5.53957114,16.5915966 5.78487395,16.8368994 5.78487395,17.1394958 C5.78487395,17.4420921 5.53957114,17.687395 5.23697479,17.687395 C4.93437844,17.687395 4.68907563,17.4420921 4.68907563,17.1394958 C4.68907563,16.8368994 4.93437844,16.5915966 5.23697479,16.5915966 Z M7.20336134,16.5915966 C7.50595769,16.5915966 7.7512605,16.8368994 7.7512605,17.1394958 C7.7512605,17.4420921 7.50595769,17.687395 7.20336134,17.687395 C6.90076499,17.687395 6.65546218,17.4420921 6.65546218,17.1394958 C6.65546218,16.8368994 6.90076499,16.5915966 7.20336134,16.5915966 Z M15.4084034,4.68571429 L14.1647059,4.68571429 L14.1647059,6.14453782 C13.5831933,6.20504202 13.0857143,6.35966387 12.6722689,6.60840336 L12.6722689,6.60840336 L11.7478992,5.68403361 L10.8705882,6.56134454 L11.7915966,7.48571429 C11.5495798,7.88907563 11.3915966,8.38655462 11.3277311,8.97815126 L11.3277311,8.97815126 L9.87226891,8.97815126 L9.87226891,10.2218487 L11.3310924,10.2218487 C11.3915966,10.8134454 11.5495798,11.3109244 11.794958,11.7142857 L11.794958,11.7142857 L10.8705882,12.6386555 L11.7478992,13.5159664 L12.6722689,12.5915966 C13.0857143,12.8403361 13.5865546,12.9915966 14.1647059,13.0554622 L14.1647059,13.0554622 L14.1647059,14.5142857 L15.4084034,14.5142857 L15.4084034,13.0554622 C15.989916,12.994958 16.487395,12.8403361 16.9008403,12.5915966 L16.9008403,12.5915966 L17.8252101,13.5159664 L18.7058824,12.6386555 L17.7815126,11.7142857 C18.0235294,11.3109244 18.1815126,10.8134454 18.2453782,10.2218487 L18.2453782,10.2218487 L19.7042017,10.2218487 L19.7042017,8.97815126 L18.2453782,8.97815126 C18.1848739,8.38655462 18.0268908,7.88907563 17.7815126,7.48571429 L17.7815126,7.48571429 L18.7058824,6.56134454 L17.8252101,5.68403361 L16.9008403,6.60840336 C16.487395,6.35966387 15.9865546,6.20840336 15.4084034,6.14453782 L15.4084034,6.14453782 L15.4084034,4.68571429 Z M14.7865546,7.18319328 C15.5260504,7.18319328 16.1142857,7.39159664 16.5378151,7.79495798 C16.9781513,8.22184874 17.2,8.82689076 17.2,9.6 C17.2,10.3731092 16.9781513,10.9815126 16.5378151,11.405042 C16.1176471,11.8117647 15.5294118,12.0168067 14.7865546,12.0168067 C14.0436975,12.0168067 13.4554622,11.8117647 13.0319328,11.405042 C12.5915966,10.9781513 12.3697479,10.3731092 12.3697479,9.6 C12.3697479,8.82689076 12.5915966,8.21848739 13.0319328,7.79495798 C13.4554622,7.38823529 14.0436975,7.18319328 14.7865546,7.18319328 Z M14.7865546,7.85546218 C13.6806723,7.85546218 13.0420168,8.40672269 13.0420168,9.6 C13.0420168,10.7932773 13.6806723,11.3445378 14.7865546,11.3445378 C15.892437,11.3445378 16.5310924,10.7932773 16.5310924,9.6 C16.5310924,8.40672269 15.892437,7.85546218 14.7865546,7.85546218 Z" id="Configurar-decodificador-tv_1Light"></path>
        </g>
    </g>
</svg>

<svg width="24" height="24" viewBox="0 0 24 24" xmlns="http://www.w3.org/2000/svg"><path d="M15.408 4.013a.67.67 0 01.67.673v.89c.235.05.463.125.685.216l.582-.582a.674.674 0 01.95 0l.885.88a.674.674 0 010 .952l-.582.582c.091.221.162.45.215.685h.891c.37 0 .672.303.672.673v1.243c0 .37-.302.672-.672.672h-.89c-.051.236-.125.464-.216.686l.582.582a.67.67 0 01.195.433h2a2.244 2.244 0 012.242 2.242v2.424a2.244 2.244 0 01-2.242 2.242H2.245a2.244 2.244 0 01-2.242-2.242V14.84a2.244 2.244 0 012.242-2.242h7.956a.67.67 0 01.196-.437l.581-.581a4.388 4.388 0 01-.215-.686h-.89a.674.674 0 01-.673-.672V8.978c0-.37.303-.672.672-.672h.891c.05-.235.124-.464.215-.686l-.581-.581a.674.674 0 010-.952l.877-.877a.674.674 0 01.951 0l.582.582c.222-.091.45-.162.685-.216v-.89c0-.37.303-.673.673-.673zm-4.854 9.257H2.245a1.57 1.57 0 00-1.57 1.57v2.424c0 .867.703 1.57 1.57 1.57h19.13a1.57 1.57 0 001.57-1.57V14.84a1.57 1.57 0 00-1.57-1.57h-2.352l-.724.723a.674.674 0 01-.868.071l-.083-.07-.582-.582c-.221.09-.45.161-.685.215v.89c0 .37-.303.673-.673.673h-1.243a.674.674 0 01-.673-.672v-.891a4.058 4.058 0 01-.685-.215l-.582.578a.674.674 0 01-.951 0l-.72-.72zm9.385 3.157a.713.713 0 010 1.425h-3.186a.713.713 0 010-1.425h3.186zm-16.736.165a.548.548 0 110 1.095.548.548 0 010-1.095zm2.034 0a.548.548 0 110 1.095.548.548 0 010-1.095zm1.966 0a.548.548 0 110 1.095.548.548 0 010-1.095zm8.205-11.906h-1.243v1.459c-.582.06-1.08.215-1.493.463l-.924-.924-.877.877.92.925c-.241.403-.4.9-.463 1.492H9.872v1.244h1.46c.06.591.218 1.089.463 1.492l-.924.925.877.877.924-.924c.414.248.915.4 1.493.463v1.46h1.243v-1.46c.582-.06 1.08-.215 1.493-.463l.924.924.88-.877-.923-.925c.242-.403.4-.9.463-1.492h1.46V8.978h-1.46c-.06-.591-.218-1.089-.463-1.492l.924-.925-.88-.877-.925.924c-.414-.248-.914-.4-1.493-.463v-1.46zm-.621 2.497c.74 0 1.327.209 1.75.612.441.427.663 1.032.663 1.805 0 .773-.222 1.382-.662 1.805-.42.407-1.009.612-1.751.612-.743 0-1.332-.205-1.755-.612-.44-.427-.662-1.032-.662-1.805 0-.773.222-1.382.662-1.805.423-.407 1.012-.612 1.755-.612zm0 .672c-1.106 0-1.745.552-1.745 1.745s.639 1.745 1.745 1.745c1.105 0 1.744-.552 1.744-1.745s-.639-1.745-1.744-1.745z" fill="#5CB615" fill-rule="nonzero"/></svg>
